X: 888
T: Shove The Pig's Foot A Little Closer To The Fire
B: jims roots
B: ralph
M:C|
Q: 1/4=100
K:G
V:1 
GA|"G"BdBA G2 EF|GAGE D4|DE G2 B3c|"D"B2 A4 GA|
"G"BdBA G2 EF|GAGE D3D|DE G2 "D"B3G|"G"A2  G4:|
|:GA|"G"B(dd2)  dBdg|"C"edBc "G"d4|g4g3d|"D"e2 d4 dd|
"G"B(dd2)  dBdg|"C"edBc "G"d4|BABd  "D"BAGB|"G"A2 G4:|
% abcbook-tune_id 6298c287a6ad37ae5918b426


% abcbook-boost 0
% abcbook-tablature 
% abcbook-transpose 
% abcbook-lastupdated 1665485011956
% abcbook-soundfonts 
% abcbook-repeats 1


